X: 15505
T: Glens Of Mayo, The
R: jig
M: 6/8
K: Gmajor
g|dBG AGE|GAB d2e|dBG BAG|ABd e2g|
dBG AGE|GAB d2B|AGA BGE|GAG G2:|
A|BcB Beg|fe^d e2g|fed dBA|ABd d2e|
dBG AGE|GAB d2B|AGA BGE|GAG G2:|

